img/partners/a-bank.svg

<svg width="286" height="59" viewBox="0 0 286 59" fill="none" xmlns="http://www.w3.org/2000/svg">
<path d="M0.1875 49.451H37.8658V57.2555H0.1875V49.451ZM272.668 24.3975L284.547 11.3095H275.694L265.958 22.1874V11.3095H258.903V38.8149H265.993V27.2291L276.402 38.8149H285.498L272.668 24.3975ZM42.0157 26.2104C41.8255 31.3904 41.1684 32.3745 38.298 32.3745V38.8322H39.3701C46.5807 38.8322 48.2926 35.1199 48.5519 26.8493L48.8632 17.6981H55.5204V38.8149H62.5754V11.3095H42.4999L42.0157 26.2104ZM11.3924 30.9414H26.2631L28.7358 38.8149H36.9839L25.8654 5.73245C24.7934 2.53816 23.5484 0 19.2946 0C15.0409 0 13.7441 2.53816 12.6028 5.73245L0.948328 38.8149H8.69494L11.3924 30.9414V30.9414ZM18.9315 8.63321H19.1217L24.1017 24.3111H13.623L18.9315 8.63321ZM183.737 15.2117H175.869V7.44183H194.129V0.53526H168.469V38.8149H183.737C192.193 38.8149 197.052 34.6019 197.052 26.9011C197.052 19.5974 192.124 15.2117 183.737 15.2117V15.2117ZM183.374 31.8911H175.869V21.9456H183.374C187.282 21.9456 189.478 23.6723 189.478 26.9184C189.478 30.1644 187.282 31.8911 183.374 31.8911ZM113.603 10.6706V0.483459H106.565V10.6706C102.87 10.7924 99.3736 12.3736 96.8448 15.067C94.316 17.7606 92.9611 21.3461 93.0776 25.0363C92.9517 28.7341 94.3019 32.3303 96.8313 35.0341C99.3605 37.738 102.862 39.3277 106.565 39.4538V49.8136H113.62V39.4538C115.454 39.3935 117.259 38.9727 118.93 38.2151C120.601 37.4576 122.106 36.3783 123.359 35.0391C124.612 33.6997 125.588 32.1269 126.231 30.4105C126.874 28.694 127.172 26.8678 127.107 25.0363C127.181 23.2037 126.889 21.3746 126.248 19.6561C125.606 17.9374 124.628 16.3636 123.371 15.0263C122.114 13.6892 120.603 12.6152 118.926 11.8674C117.248 11.1196 115.439 10.7128 113.603 10.6706V10.6706ZM106.582 32.8062C104.715 32.6014 103.003 31.672 101.816 30.2185C100.629 28.765 100.062 26.9038 100.236 25.0363C100.084 23.1734 100.66 21.324 101.843 19.8757C103.026 18.4272 104.724 17.4923 106.582 17.2664V32.8062ZM113.637 32.8062V17.2664C115.495 17.4923 117.194 18.4272 118.377 19.8757C119.56 21.324 120.135 23.1734 119.983 25.0363C120.149 26.9019 119.578 28.7583 118.392 30.2098C117.207 31.6613 115.501 32.593 113.637 32.8062ZM153.546 30.3716V21.0996C153.546 14.3311 149.241 10.1009 142.013 10.1009C134.785 10.1009 130.566 14.5901 130.22 19.2693H137.361C137.603 18.2679 138.675 16.4894 141.995 16.4894C142.616 16.4097 143.246 16.4749 143.835 16.6804C144.427 16.8859 144.961 17.2255 145.397 17.6729C145.832 18.1201 146.159 18.6626 146.349 19.2572C146.54 19.8521 146.588 20.4828 146.491 21.0996H139.575C133.315 21.0996 129.597 24.3975 129.597 29.8536C129.549 31.1557 129.774 32.4534 130.259 33.663C130.745 34.8725 131.479 35.9666 132.414 36.8749C133.35 37.7831 134.466 38.485 135.691 38.9353C136.915 39.3854 138.221 39.5738 139.523 39.4883C140.993 39.5655 142.459 39.2797 143.792 38.6564C145.125 38.0329 146.284 37.0912 147.166 35.9142C147.74 36.8837 148.577 37.6707 149.581 38.184C150.584 38.6975 151.713 38.9163 152.837 38.8149H155.275V32.4609C154.082 32.4609 153.546 31.8911 153.546 30.3716V30.3716ZM146.491 28.645C146.521 29.3251 146.405 30.0037 146.151 30.6358C145.898 31.2679 145.514 31.8395 145.025 32.3126C144.534 32.7857 143.949 33.1496 143.308 33.3807C142.666 33.6115 141.983 33.7041 141.304 33.6523C138.762 33.6523 136.756 32.7371 136.756 29.9918C136.756 27.2464 138.987 26.8493 140.871 26.8493H146.491V28.645V28.645ZM80.1436 19.6665H75.0771V11.3095H68.0222V38.8149H80.2646C87.9247 38.8149 90.6395 33.8422 90.6395 29.1457C90.6741 23.0852 86.87 19.6665 80.1436 19.6665ZM79.6248 32.8062H75.0771V25.8996H79.6248C82.0629 25.8996 83.5327 27.0047 83.5327 29.3529C83.5327 31.7011 82.1321 32.8062 79.6248 32.8062V32.8062ZM223.975 30.3716V21.0996C223.975 14.3311 219.669 10.1009 212.441 10.1009C205.213 10.1009 200.994 14.5901 200.648 19.2693H207.79C208.032 18.2679 209.104 16.4894 212.424 16.4894C213.045 16.4097 213.674 16.4749 214.264 16.6804C214.855 16.8859 215.389 17.2255 215.825 17.6729C216.261 18.1201 216.588 18.6626 216.778 19.2572C216.968 19.8521 217.016 20.4828 216.92 21.0996H210.003C203.743 21.0996 200.026 24.3975 200.026 29.8536C199.977 31.1557 200.202 32.4534 200.688 33.663C201.172 34.8725 201.907 35.9666 202.843 36.8749C203.778 37.7831 204.895 38.485 206.119 38.9353C207.344 39.3854 208.649 39.5738 209.951 39.4883C211.435 39.58 212.918 39.3013 214.269 38.6775C215.618 38.0535 216.79 37.1038 217.68 35.9142C218.246 36.8667 219.067 37.6429 220.051 38.1553C221.035 38.6678 222.142 38.8962 223.248 38.8149H225.686V32.4609C224.459 32.4609 223.975 31.8911 223.975 30.3716ZM216.954 28.645C216.98 29.3244 216.863 30.0016 216.608 30.6325C216.354 31.2634 215.97 31.8338 215.481 32.3063C214.992 32.7787 214.407 33.1429 213.767 33.375C213.128 33.6068 212.446 33.7013 211.767 33.6523C209.225 33.6523 207.219 32.7371 207.219 29.9918C207.219 27.2464 209.45 26.8493 211.334 26.8493H216.954V28.645V28.645ZM246.505 21.5485H236.77V11.3095H229.715V38.8322H236.77V27.9889H246.505V38.8149H253.56V11.3095H246.505V21.5485Z" fill="#253256"/>
</svg>

<svg width="286" height="59" fill="none" xmlns="http://www.w3.org/2000/svg"><path d="M.188 49.451h37.678v7.804H.188v-7.804zm272.48-25.053l11.879-13.088h-8.853l-9.736 10.877V11.31h-7.055v27.506h7.09V27.229l10.409 11.586h9.096l-12.83-14.417zM42.016 26.21c-.19 5.18-.848 6.164-3.718 6.164v6.458h1.072c7.21 0 8.923-3.712 9.182-11.983l.311-9.15h6.657v21.116h7.055V11.31H42.5l-.484 14.9zm-30.624 4.731h14.871l2.473 7.874h8.248L25.865 5.732C24.793 2.538 23.548 0 19.295 0c-4.254 0-5.55 2.538-6.692 5.732L.948 38.815h7.747l2.697-7.874zm7.54-22.308h.19l4.98 15.678H13.623l5.309-15.678zm164.805 6.579h-7.868v-7.77h18.26V.535h-25.66v38.28h15.268c8.456 0 13.315-4.213 13.315-11.914 0-7.304-4.928-11.69-13.315-11.69zm-.363 16.68h-7.505v-9.946h7.505c3.908 0 6.104 1.726 6.104 4.972 0 3.246-2.196 4.973-6.104 4.973zM113.603 10.67V.483h-7.038v10.188a13.965 13.965 0 00-9.72 4.396 13.923 13.923 0 00-3.767 9.97 13.94 13.94 0 003.753 9.997 13.98 13.98 0 009.734 4.42v10.36h7.055v-10.36a13.973 13.973 0 009.739-4.415 13.927 13.927 0 003.748-10.003 13.802 13.802 0 00-8.181-13.169 13.858 13.858 0 00-5.323-1.196zm-7.021 22.135a7.162 7.162 0 01-4.766-2.587 7.144 7.144 0 01-1.58-5.183 7.228 7.228 0 011.607-5.16 7.247 7.247 0 014.739-2.61v15.54zm7.055 0v-15.54a7.25 7.25 0 014.74 2.61 7.228 7.228 0 011.606 5.16 7.171 7.171 0 01-1.591 5.174 7.193 7.193 0 01-4.755 2.596zm39.909-2.434V21.1c0-6.769-4.305-11-11.533-11s-11.447 4.49-11.793 9.17h7.141c.242-1.002 1.314-2.78 4.634-2.78a4.029 4.029 0 014.496 4.61h-6.916c-6.26 0-9.978 3.297-9.978 8.754a9.313 9.313 0 002.817 7.02 9.326 9.326 0 007.109 2.614 8.968 8.968 0 007.643-3.574 5.968 5.968 0 005.671 2.9h2.438v-6.353c-1.193 0-1.729-.57-1.729-2.09zm-7.055-1.727a4.832 4.832 0 01-1.466 3.668 4.84 4.84 0 01-3.721 1.34c-2.542 0-4.548-.916-4.548-3.661 0-2.746 2.231-3.143 4.115-3.143h5.62v1.796zm-66.347-8.979h-5.067V11.31h-7.055v27.506h12.243c7.66 0 10.374-4.973 10.374-9.67.035-6.06-3.769-9.479-10.495-9.479zm-.52 13.14h-4.547V25.9h4.548c2.438 0 3.908 1.105 3.908 3.453s-1.4 3.453-3.908 3.453zm144.351-2.434V21.1c0-6.769-4.306-11-11.534-11-7.228 0-11.447 4.49-11.793 9.17h7.142c.242-1.002 1.314-2.78 4.634-2.78a4.03 4.03 0 014.496 4.61h-6.917c-6.26 0-9.977 3.297-9.977 8.754a9.28 9.28 0 00.662 3.809 9.322 9.322 0 009.263 5.825 8.955 8.955 0 007.729-3.574 5.973 5.973 0 005.568 2.9h2.438v-6.353c-1.227 0-1.711-.57-1.711-2.09zm-7.021-1.727a4.842 4.842 0 01-5.187 5.007c-2.542 0-4.548-.915-4.548-3.66 0-2.746 2.231-3.143 4.115-3.143h5.62v1.796zm29.551-7.096h-9.735v-10.24h-7.055v27.523h7.055V27.99h9.735v10.826h7.055V11.31h-7.055v10.239z" fill="#253256"/></svg>
